src/assets/icons/biz-money,fancy,job.svg

<svg width="48" height="48" viewBox="0 0 48 48" fill="none" xmlns="http://www.w3.org/2000/svg">
<path opacity="0.6" d="M19.4362 19L29 28.5638L12.1756 45.3881C10.0265 47.5373 6.54202 47.5373 4.39286 45.3881L2.61187 43.6071C0.462711 41.458 0.462711 37.9735 2.61187 35.8244L19.4362 19Z" fill="black"/>
<path d="M29.2913 1.396C30.1109 1.396 30.5207 1.396 30.9491 1.61476C31.7427 2.01992 32.2165 3.16099 31.9434 4.00906C31.7959 4.46696 31.3869 4.87738 30.569 5.69822C28.3964 7.87843 26.3301 10.2132 24.1999 12.3434C21.3332 15.2101 21.3332 19.858 24.1999 22.7248C27.0667 25.5915 31.7146 25.5915 34.5813 22.7248C36.5822 20.7239 38.8563 18.7731 40.9641 16.7117C42.4147 15.293 43.14 14.5837 43.8926 14.5433C44.4529 14.5133 45.1319 14.799 45.5022 15.2206C45.9996 15.7868 45.9996 16.5593 45.9996 18.1043C45.9996 27.332 38.519 34.8126 29.2913 34.8126C20.0636 34.8126 12.583 27.332 12.583 18.1043C12.583 8.87655 20.0636 1.396 29.2913 1.396Z" fill="black"/>
</svg>

<svg xmlns="http://www.w3.org/2000/svg" width="48" height="48" fill="none" viewBox="0 0 48 48">
  <path fill="#000" d="M19.436 19L29 28.564 12.176 45.388a5.503 5.503 0 01-7.783 0l-1.781-1.78a5.503 5.503 0 010-7.784L19.436 19z" opacity=".6"/>
  <path fill="#000" d="M29.291 1.396c.82 0 1.23 0 1.658.219.794.405 1.268 1.546.994 2.394-.147.458-.556.868-1.374 1.69-2.173 2.18-4.239 4.514-6.37 6.644a7.34 7.34 0 0010.382 10.382c2.001-2.001 4.275-3.952 6.383-6.013 1.45-1.419 2.176-2.128 2.929-2.169.56-.03 1.239.256 1.61.678.497.566.497 1.338.497 2.883 0 9.228-7.481 16.709-16.709 16.709-9.227 0-16.708-7.481-16.708-16.709 0-9.227 7.48-16.708 16.708-16.708z"/>
</svg>
